X:492
T:Polska # 492
T: efter Melker Andersson
M:3/4
L:1/16
Q: 120
K: D
A2 |A3d F3A D3F| D3F A3d f3a| e2ge c3e A3c| c3e e3g g3f|
f3d d3A F3A| D3F A3d f3a| e2ge c2e2 A3c| c3e e2d2 d2:: d2| d3f f3f f3A|
A3c e3e e3G| F3A d3c B3A| G3A B2cB A3F| D4f3f f3A| A3c e3e e3G|
F3A d3c B3A| G3F E4D2:|

